static/img/social_icons/Youtube.svg

<svg width="49" height="49" viewBox="0 0 49 49" fill="none" xmlns="http://www.w3.org/2000/svg">
<circle cx="24.5" cy="24.2379" r="23.5" stroke="#DC296C"/>
<g clip-path="url(#clip0_211_1885)">
<path d="M35.1254 20.2567C35.1254 20.0873 34.8593 18.7321 34.2384 18.1391C33.44 17.2921 32.5529 17.2074 32.1094 17.2074H32.0207C29.2707 17.038 25.1901 17.038 25.1014 17.038C25.1014 17.038 20.9321 17.038 18.1822 17.2074H18.0935C17.6499 17.2074 16.7629 17.2921 15.9645 18.1391C15.3435 18.8168 15.0774 20.172 15.0774 20.3414C15.0774 20.4262 14.9 21.9508 14.9 23.5602V25.0002C14.9 26.6096 15.0774 28.1343 15.0774 28.219C15.0774 28.3884 15.3435 29.7437 15.9645 30.3366C16.6742 31.099 17.5612 31.1837 18.0935 31.2684C18.1822 31.2684 18.2709 31.2684 18.3596 31.2684C19.9564 31.4378 24.8353 31.4378 25.0127 31.4378C25.0127 31.4378 29.182 31.4378 31.9319 31.2684H32.0207C32.4642 31.1837 33.3513 31.099 34.1497 30.3366C34.7706 29.659 35.0367 28.3037 35.0367 28.1343C35.0367 28.0496 35.2141 26.5249 35.2141 24.9155V23.4755C35.3029 21.9508 35.1254 20.3414 35.1254 20.2567ZM28.561 24.4073L23.2386 27.1178C23.1498 27.1178 23.1498 27.2025 23.0611 27.2025C22.9724 27.2025 22.8837 27.2025 22.8837 27.1178C22.795 27.0331 22.7063 26.9484 22.7063 26.779V21.2732C22.7063 21.1038 22.795 21.0191 22.8837 20.9344C22.9724 20.8497 23.1498 20.8497 23.3273 20.9344L28.6497 23.6449C28.8272 23.7296 28.9159 23.8143 28.9159 23.9838C28.9159 24.1532 28.7385 24.3226 28.561 24.4073Z" fill="white"/>
</g>
<defs>
<clipPath id="clip0_211_1885">
<rect width="20.4" height="19.2" fill="white" transform="translate(14.9 14.6379)"/>
</clipPath>
</defs>
</svg>

<svg width="49" height="49" fill="none" xmlns="http://www.w3.org/2000/svg"><circle cx="24.5" cy="24.238" r="23.5" stroke="#DC296C"/><g clip-path="url(#a)"><path d="M35.125 20.257c0-.17-.266-1.525-.887-2.118a2.84 2.84 0 0 0-2.129-.932h-.088c-2.75-.169-6.83-.169-6.92-.169 0 0-4.169 0-6.919.17h-.088a2.84 2.84 0 0 0-2.13.931c-.62.678-.887 2.033-.887 2.202 0 .085-.177 1.61-.177 3.22V25c0 1.609.177 3.133.177 3.218 0 .17.267 1.525.887 2.118.71.762 1.597.847 2.13.931h.266c1.596.17 6.475.17 6.653.17 0 0 4.169 0 6.919-.17h.089c.443-.084 1.33-.169 2.129-.931.62-.678.887-2.033.887-2.203 0-.084.177-1.61.177-3.218v-1.44c.089-1.525-.089-3.135-.089-3.22Zm-6.564 4.15-5.322 2.71c-.09 0-.09.085-.178.085-.089 0-.177 0-.177-.084-.089-.085-.178-.17-.178-.339v-5.506c0-.17.089-.254.178-.339.088-.084.266-.084.443 0l5.323 2.71c.177.086.266.17.266.34s-.178.339-.355.423Z" fill="#fff"/></g><defs><clipPath id="a"><path fill="#fff" transform="translate(14.9 14.638)" d="M0 0h20.4v19.2H0z"/></clipPath></defs></svg>
